X:11475
T:Musical Priest
R:Reel
S:
H:
N:
D:Andy McGann/Paddy Reynolds
Z:Adrian Scahill
M:4/4
L:1/8
K:D
FBBA BcdB|cBAc ecBA|FBBA BcdB|cBAc B2BA|\
FBBA BcdB|cBAc ecBA|FBcB Adfd|ceac BABc||\
d2dc dfed|(3cBA eA fAec|d2dc def^g|afec dBB2|\
d2dc dfed|(3cBA eA fAec|d2ce def^g|afec dBB2||\
bBB2 bBB2|cBAc ecBA|bBB2 bBB2|cBAc Bcde|\
(3fga ba bafg|(3agf ec ABce|d3e fgaf|ecAc B2BA||
